X: 942
T: Carrick Reel
R: reel
B: Robert Bremner "A Collection of Scots Reels or Country Dances" 1757 p.94 #2 & p.95 #1
S: http://imslp.org/wiki/A_Collection_of_Scots_Reels_or_Country_Dances_(Bremner,_Robert)
Z: 2013 John Chambers <jc:trillian.mit.edu>
M: C
L: 1/8
K: D
% - - - - - - - - - - - - - - - - - - - - - - - - -
V: 1
|:\
D3F A/A/A AB | ABdA F/F/F FD | EFEF B/B/B Bf | gfed TB2 (A/B/d) |
D3F A/A/A AB | ABdA F2ED | GBGB FAFA | EFGA TB2 (A/B/d) :|
|:\
d>edf d/d/d dA | BAdA F/F/F FD | e>fef e/e/e ef | gfed B/B/B (TBA) |
d3f d/d/d dA | BAdA F/F/F FD | G/G/G GB F/F/F FA | EFGA TB2 (A/B/d) :|
% - - - - - - - - - - - - - - - - - - - - - - - - -
V: 2 clef=bass middle=d
|:\
d2d2 d2d2 | d2d2 d2d2 | e2e2 e2e2 | e2e2 e2e2 |\
d2d2 d2d2 |
%page 95
d2d2 d2d2 | g2g2 d2d2 | e2e2 e2e2 :|\
|:\
d2d2 d2d2 | d2d2 d2d2 | e2e2 e2e2 |
e2e2 e2e2 |\
d2d2 d2d2 | d2d2 d2d2 | g2g2 f2f2 | e2e2 e2e2 :|
% - - - - - - - - - - - - - - - - - - - - - - - - -

%%sep 1 1 500
%%sep 1 1 500
